( pcb2gcode 2.5.0 )
( Software-independent Gcode )

G94 ( Millimeters per minute feed rate. )
G21 ( Units == Millimeters. )

G90 ( Absolute coordinates. )
G00 S13000 ( RPM spindle speed. )
G01 F120.00000 ( Feedrate. )


G00 Z15.00000 (Retract to tool change height)
T0
M5      (Spindle stop.)
G04 P1.00000 (Wait for spindle to stop)
(MSG, Change tool bit to mill diameter 0.15360mm)
M6      (Tool change.)
M0      (Temporary machine stop.)
M3 ( Spindle on clockwise. )
G04 P1.00000 (Wait for spindle to get up to speed)
G04 P0 ( dwell for no time -- G64 should not smooth over this point )
G00 Z2.00000 ( retract )

G00 X-11.20610 Y-36.46894 ( rapid move to begin. )
G01 F60.00000
( Mill infeed pass 1/1 )
G01 Z-0.10000
G04 P0 ( dwell for no time -- G64 should not smooth over this point )
G01 F120.00000
G01 X-11.20610 Y-36.46894
G01 X-11.22660 Y-36.45225
G01 X-11.46894 Y-36.30491
G01 X-11.72906 Y-36.19190
G01 X-12.00219 Y-36.11540
G01 X-12.28316 Y-36.07676
G01 X-12.56680 Y-36.07676
G01 X-12.84778 Y-36.11540
G01 X-13.12088 Y-36.19190
G01 X-13.38100 Y-36.30491
G01 X-13.62334 Y-36.45225
G01 X-13.64384 Y-36.46894
G01 X-13.38707 Y-36.72571
G01 X-13.28123 Y-36.65088
G01 X-12.95080 Y-36.50562
G01 X-12.60549 Y-36.43264
G01 X-12.25250 Y-36.43224
G01 X-11.89137 Y-36.50770
G01 X-11.56876 Y-36.65088
G01 X-11.46289 Y-36.72573
G01 X-11.20610 Y-36.46894
G01 X-11.32693 Y-36.48116
G01 X-11.47082 Y-36.62505
G01 X-11.46858 Y-36.64737
G01 X-11.47082 Y-36.62505
G01 X-11.52319 Y-36.58801
G01 X-11.86764 Y-36.43467
G01 X-12.23645 Y-36.35626
G01 X-12.61351 Y-36.35626
G01 X-12.96678 Y-36.43051
G01 X-12.99733 Y-36.44041
G01 X-13.32680 Y-36.58801
G01 X-13.37915 Y-36.62502
G01 X-13.38138 Y-36.64735
G01 X-13.37915 Y-36.62502
G01 X-13.52301 Y-36.48116
G01 X-13.57020 Y-36.47549
G01 X-13.52301 Y-36.48116
G01 X-13.34559 Y-36.37326
G01 X-13.09510 Y-36.26444
G01 X-12.83211 Y-36.19076
G01 X-12.56154 Y-36.15357
G01 X-12.28842 Y-36.15339
G01 X-12.01781 Y-36.19058
G01 X-11.75479 Y-36.26427
G01 X-11.50427 Y-36.37310
G01 X-11.32693 Y-36.48116
G01 X-11.45035 Y-36.49596
G01 X-11.47940 Y-36.52502
G01 X-11.47641 Y-36.54120
G01 X-11.47940 Y-36.52502
G01 X-11.50628 Y-36.51057
G01 X-11.82139 Y-36.37026
G01 X-11.86721 Y-36.35538
G01 X-12.22842 Y-36.27989
G01 X-12.59746 Y-36.27862
G01 X-12.64536 Y-36.28367
G01 X-13.00607 Y-36.36162
G01 X-13.34369 Y-36.51057
G01 X-13.37056 Y-36.52500
G01 X-13.37353 Y-36.54120
G01 X-13.37056 Y-36.52500
G01 X-13.39959 Y-36.49596
G01 X-13.44676 Y-36.49030
G01 X-13.39959 Y-36.49596
G01 X-13.31018 Y-36.44161
G01 X-13.06932 Y-36.33696
G01 X-12.81643 Y-36.26612
G01 X-12.55629 Y-36.23036
G01 X-12.29368 Y-36.23018
G01 X-12.03348 Y-36.26594
G01 X-11.78057 Y-36.33681
G01 X-11.53968 Y-36.44146
G01 X-11.45035 Y-36.49596
G04 P0 ( dwell for no time -- G64 should not smooth over this point )
G00 Z2.00000 ( retract )

G00 X-10.34692 Y-38.14999 ( rapid move to begin. )
G01 F60.00000
( Mill infeed pass 1/1 )
G01 Z-0.10000
G04 P0 ( dwell for no time -- G64 should not smooth over this point )
G01 F120.00000
G01 X-10.34692 Y-38.14999
G01 X-10.36627 Y-38.43294
G01 X-10.42398 Y-38.71064
G01 X-10.51895 Y-38.97787
G01 X-10.64946 Y-39.22969
G01 X-10.74613 Y-39.36665
G01 X-10.99934 Y-39.11343
G01 X-10.84755 Y-38.85250
G01 X-10.73800 Y-38.51676
G01 X-10.69818 Y-38.14999
G01 X-10.73800 Y-37.78321
G01 X-10.84755 Y-37.44747
G01 X-10.99937 Y-37.18654
G01 X-10.74613 Y-36.93330
G01 X-10.64946 Y-37.07026
G01 X-10.51895 Y-37.32207
G01 X-10.42398 Y-37.58931
G01 X-10.36627 Y-37.86701
G01 X-10.34692 Y-38.14999
G01 X-10.42373 Y-38.14999
G01 X-10.44235 Y-38.42248
G01 X-10.49792 Y-38.68991
G01 X-10.58934 Y-38.94732
G01 X-10.71522 Y-39.18969
G01 X-10.75629 Y-39.24788
G01 X-10.74923 Y-39.29817
G01 X-10.75629 Y-39.24788
G01 X-10.90318 Y-39.10099
G01 X-10.92304 Y-39.10360
G01 X-10.90318 Y-39.10099
G01 X-10.77747 Y-38.88392
G01 X-10.66495 Y-38.54051
G01 X-10.65830 Y-38.50909
G01 X-10.62223 Y-38.16604
G01 X-10.62223 Y-38.13393
G01 X-10.65830 Y-37.79088
G01 X-10.66495 Y-37.75946
G01 X-10.77747 Y-37.41605
G01 X-10.90318 Y-37.19896
G01 X-10.92307 Y-37.19634
G01 X-10.90318 Y-37.19896
G01 X-10.75629 Y-37.05207
G01 X-10.74923 Y-37.00178
G01 X-10.75629 Y-37.05207
G01 X-10.71522 Y-37.11026
G01 X-10.58934 Y-37.35263
G01 X-10.49792 Y-37.61003
G01 X-10.44235 Y-37.87747
G01 X-10.42373 Y-38.14999
G01 X-10.50069 Y-38.14999
G01 X-10.51862 Y-38.41201
G01 X-10.57206 Y-38.66914
G01 X-10.66000 Y-38.91661
G01 X-10.76902 Y-39.12654
G01 X-10.76086 Y-39.17917
G01 X-10.76902 Y-39.12654
G01 X-10.80699 Y-39.08857
G01 X-10.82675 Y-39.09118
G01 X-10.80699 Y-39.08857
G01 X-10.70737 Y-38.91531
G01 X-10.59193 Y-38.56424
G01 X-10.58192 Y-38.51712
G01 X-10.54458 Y-38.14999
G01 X-10.58192 Y-37.78286
G01 X-10.59193 Y-37.73574
G01 X-10.70740 Y-37.38466
G01 X-10.80699 Y-37.21138
G01 X-10.82678 Y-37.20876
G01 X-10.80699 Y-37.21138
G01 X-10.76902 Y-37.17341
G01 X-10.76086 Y-37.12078
G01 X-10.76902 Y-37.17341
G01 X-10.66000 Y-37.38334
G01 X-10.57206 Y-37.63081
G01 X-10.51862 Y-37.88794
G01 X-10.50069 Y-38.14999
G04 P0 ( dwell for no time -- G64 should not smooth over this point )
G00 Z2.00000 ( retract )

G00 X-11.20610 Y-39.83101 ( rapid move to begin. )
G01 F60.00000
( Mill infeed pass 1/1 )
G01 Z-0.10000
G04 P0 ( dwell for no time -- G64 should not smooth over this point )
G01 F120.00000
G01 X-11.20610 Y-39.83101
G01 X-11.22660 Y-39.84770
G01 X-11.46894 Y-39.99504
G01 X-11.72906 Y-40.10805
G01 X-12.00219 Y-40.18455
G01 X-12.28316 Y-40.22319
G01 X-12.56680 Y-40.22319
G01 X-12.84778 Y-40.18455
G01 X-13.12088 Y-40.10805
G01 X-13.38100 Y-39.99504
G01 X-13.62334 Y-39.84770
G01 X-13.64384 Y-39.83101
G01 X-13.38707 Y-39.57427
G01 X-13.28123 Y-39.64910
G01 X-12.95080 Y-39.79436
G01 X-12.60549 Y-39.86733
G01 X-12.25250 Y-39.86774
G01 X-11.89137 Y-39.79227
G01 X-11.56876 Y-39.64910
G01 X-11.46287 Y-39.57424
G01 X-11.20610 Y-39.83101
G01 X-11.32693 Y-39.81882
G01 X-11.47079 Y-39.67493
G01 X-11.46856 Y-39.65260
G01 X-11.47079 Y-39.67493
G01 X-11.52319 Y-39.71196
G01 X-11.86764 Y-39.86530
G01 X-12.23645 Y-39.94371
G01 X-12.61351 Y-39.94371
G01 X-12.96678 Y-39.86947
G01 X-12.99733 Y-39.85956
G01 X-13.32680 Y-39.71196
G01 X-13.37915 Y-39.67495
G01 X-13.38138 Y-39.65260
G01 X-13.37915 Y-39.67495
G01 X-13.52301 Y-39.81879
G01 X-13.57020 Y-39.82446
G01 X-13.52301 Y-39.81879
G01 X-13.34559 Y-39.92669
G01 X-13.09510 Y-40.03551
G01 X-12.83211 Y-40.10919
G01 X-12.56154 Y-40.14638
G01 X-12.28842 Y-40.14655
G01 X-12.01781 Y-40.10937
G01 X-11.75479 Y-40.03568
G01 X-11.50427 Y-39.92684
G01 X-11.32693 Y-39.81882
G01 X-11.45035 Y-39.80398
G01 X-11.47938 Y-39.77495
G01 X-11.47641 Y-39.75875
G01 X-11.47938 Y-39.77495
G01 X-11.50628 Y-39.78940
G01 X-11.82139 Y-39.92971
G01 X-11.86721 Y-39.94460
G01 X-12.22842 Y-40.02009
G01 X-12.59746 Y-40.02136
G01 X-12.64536 Y-40.01630
G01 X-13.00607 Y-39.93835
G01 X-13.34369 Y-39.78940
G01 X-13.37056 Y-39.77495
G01 X-13.37356 Y-39.75877
G01 X-13.37056 Y-39.77495
G01 X-13.39959 Y-39.80398
G01 X-13.44676 Y-39.80965
G01 X-13.39959 Y-39.80398
G01 X-13.31018 Y-39.85834
G01 X-13.06932 Y-39.96299
G01 X-12.81643 Y-40.03383
G01 X-12.55629 Y-40.06959
G01 X-12.29368 Y-40.06977
G01 X-12.03348 Y-40.03401
G01 X-11.78057 Y-39.96314
G01 X-11.53968 Y-39.85849
G01 X-11.45035 Y-39.80398
G04 P0 ( dwell for no time -- G64 should not smooth over this point )
G00 Z2.00000 ( retract )

G00 X-13.85059 Y-37.18651 ( rapid move to begin. )
G01 F60.00000
( Mill infeed pass 1/1 )
G01 Z-0.10000
G04 P0 ( dwell for no time -- G64 should not smooth over this point )
G01 F120.00000
G01 X-13.85059 Y-37.18651
G01 X-14.00241 Y-37.44747
G01 X-14.11196 Y-37.78321
G01 X-14.15179 Y-38.14999
G01 X-14.11196 Y-38.51676
G01 X-14.00241 Y-38.85250
G01 X-13.85062 Y-39.11343
G01 X-14.10381 Y-39.36665
G01 X-14.20050 Y-39.22969
G01 X-14.33098 Y-38.97787
G01 X-14.42596 Y-38.71064
G01 X-14.48366 Y-38.43294
G01 X-14.50302 Y-38.14999
G01 X-14.48366 Y-37.86701
G01 X-14.42596 Y-37.58931
G01 X-14.33098 Y-37.32207
G01 X-14.20050 Y-37.07026
G01 X-14.10381 Y-36.93330
G01 X-13.85059 Y-37.18651
G01 X-13.94678 Y-37.19893
G01 X-14.06500 Y-37.40142
G01 X-14.07841 Y-37.43140
G01 X-14.18501 Y-37.75946
G01 X-14.19169 Y-37.79088
G01 X-14.22860 Y-38.14999
G01 X-14.18918 Y-38.52497
G01 X-14.07251 Y-38.88392
G01 X-13.94678 Y-39.10101
G01 X-13.92690 Y-39.10363
G01 X-13.94678 Y-39.10101
G01 X-14.09365 Y-39.24788
G01 X-14.10071 Y-39.29819
G01 X-14.09365 Y-39.24788
G01 X-14.13474 Y-39.18969
G01 X-14.26037 Y-38.94722
G01 X-14.35184 Y-38.68986
G01 X-14.40741 Y-38.42245
G01 X-14.42603 Y-38.14999
G01 X-14.40741 Y-37.87750
G01 X-14.35184 Y-37.61008
G01 X-14.26037 Y-37.35273
G01 X-14.13474 Y-37.11026
G01 X-14.09365 Y-37.05207
G01 X-14.10071 Y-37.00175
G01 X-14.09365 Y-37.05207
G01 X-13.94678 Y-37.19893
G01 X-14.04295 Y-37.21138
G01 X-14.13132 Y-37.36271
G01 X-14.15146 Y-37.40767
G01 X-14.26428 Y-37.75903
G01 X-14.30538 Y-38.14999
G01 X-14.26807 Y-38.51712
G01 X-14.25806 Y-38.56424
G01 X-14.14259 Y-38.91531
G01 X-14.04297 Y-39.08859
G01 X-14.02321 Y-39.09121
G01 X-14.04297 Y-39.08859
G01 X-14.08095 Y-39.12657
G01 X-14.08910 Y-39.17920
G01 X-14.08095 Y-39.12657
G01 X-14.18976 Y-38.91653
G01 X-14.27772 Y-38.66909
G01 X-14.33114 Y-38.41199
G01 X-14.34907 Y-38.14999
G01 X-14.33114 Y-37.88796
G01 X-14.27772 Y-37.63086
G01 X-14.18976 Y-37.38342
G01 X-14.08095 Y-37.17338
G01 X-14.08910 Y-37.12075
G01 X-14.08095 Y-37.17338
G01 X-14.04295 Y-37.21138
G04 P0 ( dwell for no time -- G64 should not smooth over this point )
G00 Z2.00000 ( retract )

G00 X-48.83658 Y-38.37417 ( rapid move to begin. )
G01 F60.00000
( Mill infeed pass 1/1 )
G01 Z-0.10000
G04 P0 ( dwell for no time -- G64 should not smooth over this point )
G01 F120.00000
G01 X-48.83658 Y-38.37417
G01 X-47.88832 Y-49.14999
G01 X-47.96541 Y-49.14999
G01 X-48.83658 Y-39.25026
G01 X-48.83658 Y-40.12634
G01 X-48.04250 Y-49.14999
G01 X-47.81121 Y-49.14999
G01 X-48.83658 Y-37.49807
G01 X-48.83658 Y-36.62200
G01 X-47.73412 Y-49.14999
G01 X-47.81121 Y-49.14999
G01 X-47.57994 Y-49.14999
G01 X-47.65703 Y-49.14997
G01 X-48.83658 Y-35.74590
G01 X-48.83658 Y-34.86981
G01 X-47.57994 Y-49.14999
G01 X-47.50283 Y-49.14999
G01 X-48.83658 Y-33.99371
G01 X-48.83658 Y-33.11764
G01 X-47.42574 Y-49.14999
G01 X-47.50283 Y-49.14999
G01 X-47.27156 Y-49.14999
G01 X-47.34865 Y-49.14997
G01 X-48.83658 Y-32.24154
G01 X-48.83658 Y-31.36544
G01 X-47.27156 Y-49.14999
G01 X-46.26930 Y-49.14999
G01 X-46.34639 Y-49.14997
G01 X-48.83658 Y-20.85236
G01 X-48.83658 Y-19.97629
G01 X-46.26930 Y-49.14999
G01 X-46.19221 Y-49.14999
G01 X-48.83658 Y-19.10019
G01 X-48.83658 Y-18.22409
G01 X-46.11512 Y-49.14999
G01 X-46.19221 Y-49.14999
G01 X-46.03801 Y-49.14999
G01 X-48.83658 Y-17.34800
G01 X-48.83658 Y-16.47193
G01 X-45.96092 Y-49.14999
G01 X-46.03801 Y-49.14999
G01 X-45.57545 Y-49.14999
G01 X-45.65254 Y-49.14997
G01 X-48.83658 Y-12.96756
G01 X-48.83658 Y-12.09147
G01 X-45.57545 Y-49.14999
G01 X-44.88157 Y-49.14999
G01 X-44.95869 Y-49.14997
G01 X-48.83658 Y-5.08274
G01 X-48.83658 Y-5.95884
G01 X-45.03577 Y-49.14997
G01 X-44.49610 Y-49.14999
G01 X-44.57319 Y-49.14997
G01 X-48.78606 Y-1.27622
G01 X-48.79091 Y-1.06843
G01 X-48.78365 Y-1.00000
G01 X-48.62952 Y-1.00000
G01 X-48.70658 Y-1.00000
G01 X-48.71418 Y-1.07158
G01 X-48.70955 Y-1.26949
G01 X-44.49610 Y-49.14999
G01 X-43.87698 Y-49.14999
G01 X-48.09754 Y-1.21562
G01 X-48.10031 Y-1.09687
G01 X-48.09002 Y-1.00000
G01 X-48.01296 Y-1.00000
G01 X-48.02358 Y-1.10005
G01 X-48.02104 Y-1.20889
G01 X-43.80568 Y-49.11090
G01 X-43.79940 Y-49.14999
G01 X-43.87698 Y-49.14999
G01 X-43.72181 Y-49.14999
G01 X-43.72917 Y-49.10417
G01 X-47.94453 Y-1.20216
G01 X-47.94684 Y-1.10320
G01 X-47.93557 Y-1.00000
G01 X-47.85764 Y-1.00000
G01 X-47.87011 Y-1.10637
G01 X-47.86803 Y-1.19543
G01 X-43.65267 Y-49.09744
G01 X-43.64424 Y-49.14999
G01 X-43.72181 Y-49.14999
G01 X-43.56664 Y-49.14999
G01 X-43.57616 Y-49.09071
G01 X-47.79152 Y-1.18869
G01 X-47.79338 Y-1.10952
G01 X-47.77971 Y-1.00000
G01 X-47.70181 Y-1.00000
G01 X-47.71664 Y-1.11270
G01 X-47.71502 Y-1.18196
G01 X-43.49966 Y-49.08398
G01 X-43.48907 Y-49.14999
G01 X-43.56664 Y-49.14999
G01 X-43.41030 Y-49.14999
G01 X-43.42315 Y-49.07724
G01 X-47.63851 Y-1.17523
G01 X-47.63991 Y-1.11585
G01 X-47.62388 Y-1.00000
G01 X-47.54524 Y-1.00000
G01 X-47.56318 Y-1.11902
G01 X-47.56201 Y-1.16850
G01 X-43.34665 Y-49.07051
G01 X-43.33796 Y-49.12464
G01 X-43.33006 Y-49.14999
G01 X-43.41030 Y-49.14999
G01 X-42.99809 Y-49.14999
G01 X-42.98363 Y-49.16414
G01 X-42.91708 Y-49.21115
G01 X-42.89506 Y-49.21852
G01 X-42.84063 Y-49.22677
G01 X-8.05000 Y-49.22677
G01 X-6.62518 Y-49.08088
G01 X-6.59562 Y-49.07440
G01 X-5.22663 Y-48.63874
G01 X-4.00228 Y-47.95129
G01 X-3.95643 Y-47.91987
G01 X-2.89415 Y-46.99511
G01 X-2.86438 Y-46.96188
G01 X-2.00779 Y-45.83417
G01 X-1.39807 Y-44.55729
G01 X-1.37889 Y-44.50535
G01 X-1.04734 Y-43.15407
G01 X-1.03970 Y-43.09923
G01 X-0.98877 Y-41.68049
G01 X-1.22786 Y-40.27444
G01 X-1.23675 Y-40.24081
G01 X-1.76192 Y-38.90554
G01 X-23.14306 Y-7.46237
G01 X-24.30386 Y-5.63913
G01 X-24.33917 Y-5.59275
G01 X-25.82822 Y-3.99524
G01 X-27.59393 Y-2.68541
G01 X-29.56283 Y-1.71950
G01 X-31.66463 Y-1.12900
G01 X-31.71441 Y-1.12057
G01 X-33.84868 Y-0.92560
G01 X-47.05596 Y-0.92319
G01 X-47.14466 Y-0.94597
G01 X-47.17049 Y-0.95931
G01 X-47.22680 Y-1.02215
G01 X-47.24088 Y-1.04602
G01 X-47.25599 Y-1.14158
G01 X-43.04063 Y-49.04359
G01 X-43.01015 Y-49.12992
G01 X-42.99809 Y-49.14999
G01 X-43.24975 Y-49.14999
G01 X-43.26319 Y-49.10709
G01 X-43.27014 Y-49.06378
G01 X-47.48550 Y-1.16177
G01 X-47.48644 Y-1.12217
G01 X-47.48225 Y-1.08280
G01 X-47.46607 Y-1.00000
G01 X-47.20760 Y-1.00000
G01 X-47.30372 Y-1.00000
G01 X-47.32015 Y-1.04643
G01 X-47.33087 Y-1.10881
G01 X-47.33249 Y-1.14831
G01 X-43.11713 Y-49.05032
G01 X-43.10715 Y-49.09292
G01 X-43.08478 Y-49.14999
G01 X-43.16725 Y-49.14999
G01 X-43.18843 Y-49.08954
G01 X-43.19364 Y-49.05705
G01 X-47.40900 Y-1.15504
G01 X-47.40656 Y-1.09581
G01 X-47.38693 Y-1.00000
G01 X-48.83658 Y-1.00000
G01 X-48.83658 Y-41.00243
G01 X-48.11961 Y-49.14999
G01 X-48.19670 Y-49.14999
G01 X-48.83658 Y-41.87853
G01 X-48.83658 Y-41.00243
G01 X-48.83658 Y-42.75463
G01 X-48.27379 Y-49.14999
G01 X-48.35088 Y-49.14999
G01 X-48.83658 Y-43.63070
G01 X-48.83658 Y-42.75463
G01 X-48.83658 Y-44.50679
G01 X-48.42800 Y-49.14999
G01 X-48.50508 Y-49.14999
G01 X-48.83658 Y-45.38289
G01 X-48.83658 Y-44.50679
G01 X-48.83658 Y-46.25899
G01 X-48.58217 Y-49.14999
G01 X-48.65926 Y-49.14999
G01 X-48.83658 Y-47.13506
G01 X-48.83658 Y-46.25899
G01 X-48.83658 Y-48.01116
G01 X-48.73638 Y-49.14999
G01 X-48.81347 Y-49.14999
G01 X-48.83658 Y-48.88725
G01 X-48.83658 Y-48.01116
G01 X-48.83658 Y-49.14999
G01 X-47.19444 Y-49.14999
G01 X-48.83658 Y-30.48935
G01 X-48.83658 Y-29.61328
G01 X-47.11736 Y-49.14999
G01 X-47.04027 Y-49.14999
G01 X-48.83658 Y-28.73718
G01 X-48.83658 Y-27.86108
G01 X-46.96318 Y-49.14997
G01 X-46.88606 Y-49.14999
G01 X-48.83658 Y-26.98499
G01 X-48.83658 Y-26.10891
G01 X-46.80897 Y-49.14997
G01 X-46.42350 Y-49.14999
G01 X-48.83658 Y-21.72846
G01 X-48.83658 Y-22.60455
G01 X-46.50059 Y-49.14999
G01 X-46.57768 Y-49.14999
G01 X-48.83658 Y-23.48065
G01 X-48.83658 Y-24.35672
G01 X-46.65477 Y-49.14999
G01 X-46.73189 Y-49.14997
G01 X-48.83658 Y-25.23282
G04 P0 ( dwell for no time -- G64 should not smooth over this point )
G00 Z2.00000 ( retract )

G00 X-48.83658 Y-15.59583 ( rapid move to begin. )
G01 F60.00000
( Mill infeed pass 1/1 )
G01 Z-0.10000
G04 P0 ( dwell for no time -- G64 should not smooth over this point )
G01 F120.00000
G01 X-48.83658 Y-15.59583
G01 X-45.88383 Y-49.14999
G01 X-45.80674 Y-49.14999
G01 X-48.83658 Y-14.71973
G01 X-48.83658 Y-13.84366
G01 X-45.72963 Y-49.14999
G01 X-45.49833 Y-49.14999
G01 X-48.83658 Y-11.21537
G01 X-48.83658 Y-10.33930
G01 X-45.42125 Y-49.14997
G01 X-45.34416 Y-49.14999
G01 X-48.83658 Y-9.46320
G01 X-48.83658 Y-8.58710
G01 X-45.26707 Y-49.14997
G01 X-45.18995 Y-49.14999
G01 X-48.83658 Y-7.71101
G01 X-48.83658 Y-6.83494
G01 X-45.11286 Y-49.14997
G01 X-44.88157 Y-49.14999
G01 X-48.83658 Y-4.20665
G01 X-48.83658 Y-3.33057
G01 X-44.80448 Y-49.14999
G01 X-44.72739 Y-49.14999
G01 X-48.83658 Y-2.45448
G01 X-48.83658 Y-1.57838
G01 X-44.65028 Y-49.14999
G01 X-44.41901 Y-49.14999
G01 X-48.63305 Y-1.26274
G01 X-48.63744 Y-1.07475
G01 X-48.62952 Y-1.00000
G01 X-48.55243 Y-1.00000
G01 X-48.56071 Y-1.07790
G01 X-48.55657 Y-1.25600
G01 X-44.34190 Y-49.14999
G01 X-44.26481 Y-49.14999
G01 X-48.48007 Y-1.24927
G01 X-48.48398 Y-1.08107
G01 X-48.47537 Y-1.00000
G01 X-48.39830 Y-1.00000
G01 X-48.40724 Y-1.08422
G01 X-48.40356 Y-1.24254
G01 X-44.18820 Y-49.14455
G01 X-44.18731 Y-49.14999
G01 X-44.10974 Y-49.14999
G01 X-48.32706 Y-1.23581
G01 X-48.33051 Y-1.08740
G01 X-48.32124 Y-1.00000
G01 X-48.24418 Y-1.00000
G01 X-48.25378 Y-1.09055
G01 X-48.25055 Y-1.22908
G01 X-44.03519 Y-49.13109
G01 X-44.03214 Y-49.14999
G01 X-43.95457 Y-49.14999
G01 X-48.17405 Y-1.22235
G01 X-48.17704 Y-1.09372
G01 X-48.16709 Y-1.00000
G01 X-48.91336 Y-5.08282
G01 X-52.79126 Y-49.14999
G01 X-52.71419 Y-49.14999
G01 X-48.91336 Y-5.95892
G01 X-48.91336 Y-6.83501
G01 X-52.63711 Y-49.14999
G01 X-52.56002 Y-49.14999
G01 X-48.91336 Y-7.71111
G01 X-48.91336 Y-8.58721
G01 X-52.48290 Y-49.14999
G01 X-52.40581 Y-49.14999
G01 X-48.91336 Y-9.46333
G01 X-48.91336 Y-10.33943
G01 X-52.32870 Y-49.14999
G01 X-52.25164 Y-49.14999
G01 X-48.91336 Y-11.21552
G01 X-48.91336 Y-12.09162
G01 X-52.17452 Y-49.14999
G01 X-53.09969 Y-49.14999
G01 X-48.91336 Y-1.57841
G01 X-48.91336 Y-1.00000
G01 X-49.04321 Y-1.00000
G01 X-49.03678 Y-1.05052
G01 X-49.04039 Y-1.26949
G01 X-53.25387 Y-49.14999
G01 X-53.33096 Y-49.14999
G01 X-49.11689 Y-1.26274
G01 X-49.11347 Y-1.05473
G01 X-49.12042 Y-1.00000
G01 X-49.04321 Y-1.00000
G01 X-49.66094 Y-1.00000
G01 X-49.58372 Y-1.00000
G01 X-49.57356 Y-1.08003
G01 X-49.57590 Y-1.22235
G01 X-53.79575 Y-49.14999
G01 X-53.71808 Y-49.14999
G01 X-53.71478 Y-49.13109
G01 X-49.49939 Y-1.22908
G01 X-49.49688 Y-1.07582
G01 X-49.50650 Y-1.00000
G01 X-49.42929 Y-1.00000
G01 X-49.42020 Y-1.07160
G01 X-49.42289 Y-1.23581
G01 X-53.64041 Y-49.14999
G01 X-53.56273 Y-49.14999
G01 X-53.56177 Y-49.14455
G01 X-49.34638 Y-1.24254
G01 X-49.34351 Y-1.06738
G01 X-49.35207 Y-1.00000
G01 X-49.27486 Y-1.00000
G01 X-49.26683 Y-1.06317
G01 X-49.26988 Y-1.24927
G01 X-53.48516 Y-49.14999
G01 X-53.40807 Y-49.14999
G01 X-49.19337 Y-1.25600
G01 X-49.19015 Y-1.05895
G01 X-49.19764 Y-1.00000
G01 X-48.91336 Y-1.00000
G01 X-48.96597 Y-1.00000
G01 X-48.96010 Y-1.04630
G01 X-48.96388 Y-1.27622
G01 X-53.17675 Y-49.14999
G01 X-53.09969 Y-49.14999
G01 X-53.95112 Y-49.14999
G01 X-53.94429 Y-49.11090
G01 X-49.72891 Y-1.20889
G01 X-49.72693 Y-1.08847
G01 X-49.73815 Y-1.00000
G01 X-49.81537 Y-1.00000
G01 X-49.80361 Y-1.09268
G01 X-49.80541 Y-1.20216
G01 X-54.02080 Y-49.10417
G01 X-54.02880 Y-49.14999
G01 X-53.95112 Y-49.14999
G01 X-54.10647 Y-49.14999
G01 X-54.09730 Y-49.09744
G01 X-49.88192 Y-1.19543
G01 X-49.88029 Y-1.09690
G01 X-49.89261 Y-1.00000
G01 X-49.97087 Y-1.00000
G01 X-49.95697 Y-1.10112
G01 X-49.95842 Y-1.18869
G01 X-54.17381 Y-49.09071
G01 X-54.18414 Y-49.14999
G01 X-54.10647 Y-49.14999
G01 X-54.75773 Y-49.14999
G01 X-54.78424 Y-49.18057
G01 X-54.80710 Y-49.19856
G01 X-54.88772 Y-49.22368
G01 X-54.90936 Y-49.22677
G01 X-89.75781 Y-49.22637
G01 X-91.17526 Y-49.08083
G01 X-91.20342 Y-49.07468
G01 X-92.56629 Y-48.64222
G01 X-93.79768 Y-47.95129
G01 X-93.85016 Y-47.91471
G01 X-94.90588 Y-46.99500
G01 X-94.93542 Y-46.96206
G01 X-95.79214 Y-45.83417
G01 X-96.40303 Y-44.55490
G01 X-96.41789 Y-44.51609
G01 X-96.75287 Y-43.15303
G01 X-96.76079 Y-43.09359
G01 X-96.81116 Y-41.68049
G01 X-96.57227 Y-40.27541
G01 X-96.56300 Y-40.24033
G01 X-96.04251 Y-38.91298
G01 X-74.60686 Y-7.46234
G01 X-73.44702 Y-5.64060
G01 X-73.40973 Y-5.59161
G01 X-71.93478 Y-4.00700
G01 X-70.16796 Y-2.69270
G01 X-68.19664 Y-1.72367
G01 X-66.09370 Y-1.13094
G01 X-66.04107 Y-1.12133
G01 X-63.87719 Y-0.92339
G01 X-50.68410 Y-0.92382
G01 X-50.60010 Y-0.94663
G01 X-50.57757 Y-0.96271
G01 X-50.52898 Y-1.01290
G01 X-50.51308 Y-1.03726
G01 X-50.50887 Y-1.05126
G01 X-50.49375 Y-1.13063
G01 X-50.03366 Y-1.10533
G01 X-50.49375 Y-1.13063
G01 X-54.70934 Y-49.04359
G01 X-54.72610 Y-49.10808
G01 X-54.75773 Y-49.14999
G01 X-53.87343 Y-49.14999
G01 X-53.86779 Y-49.11763
G01 X-49.65240 Y-1.21562
G01 X-49.65024 Y-1.08425
G01 X-49.66094 Y-1.00000
G01 X-50.54150 Y-1.00000
G01 X-50.44630 Y-1.00000
G01 X-50.43355 Y-1.03617
G01 X-50.41984 Y-1.10467
G01 X-50.41745 Y-1.14831
G01 X-54.63283 Y-49.05032
G01 X-54.64802 Y-49.11667
G01 X-54.66164 Y-49.14999
G01 X-54.57853 Y-49.14999
G01 X-54.55633 Y-49.05705
G01 X-50.34095 Y-1.15504
G01 X-50.34453 Y-1.08961
G01 X-50.36462 Y-1.00000
G01 X-50.28476 Y-1.00000
G01 X-50.26370 Y-1.11798
G01 X-50.26444 Y-1.16177
G01 X-54.47982 Y-49.06378
G01 X-54.49796 Y-49.14999
G01 X-54.41853 Y-49.14999
G01 X-54.40332 Y-49.07051
G01 X-50.18794 Y-1.16850
G01 X-50.18702 Y-1.11376
G01 X-50.20582 Y-1.00000
G01 X-50.12751 Y-1.00000
G01 X-50.11034 Y-1.10955
G01 X-50.11143 Y-1.17523
G01 X-54.32682 Y-49.07724
G01 X-54.33952 Y-49.14999
G01 X-54.26182 Y-49.14999
G01 X-54.25031 Y-49.08398
G01 X-50.03493 Y-1.18196
G01 X-50.03366 Y-1.10533
G01 X-50.04918 Y-1.00000
G01 X-50.03366 Y-1.10533
G01 X-48.96010 Y-1.04630
G01 X-48.91336 Y-1.00000
G01 X-48.91336 Y-12.96774
G01 X-52.09741 Y-49.14999
G01 X-52.02034 Y-49.14999
G01 X-48.91336 Y-13.84381
G01 X-48.91336 Y-12.96774
G01 X-48.91336 Y-14.71993
G01 X-51.94320 Y-49.14999
G01 X-51.86614 Y-49.14999
G01 X-48.91336 Y-15.59603
G01 X-48.91336 Y-14.71993
G01 X-48.91336 Y-16.47215
G01 X-51.78905 Y-49.14999
G01 X-51.71196 Y-49.14999
G01 X-48.91336 Y-17.34823
G01 X-48.91336 Y-16.47215
G01 X-48.91336 Y-18.22435
G01 X-51.63485 Y-49.14999
G01 X-51.55776 Y-49.14999
G01 X-48.91336 Y-19.10044
G01 X-48.91336 Y-18.22435
G01 X-48.91336 Y-19.97654
G01 X-51.48064 Y-49.14999
G01 X-51.40358 Y-49.14999
G01 X-48.91336 Y-20.85264
G01 X-48.91336 Y-19.97654
G01 X-48.91339 Y-48.88725
G01 X-48.93650 Y-49.14999
G01 X-49.01359 Y-49.14999
G01 X-48.91339 Y-48.01116
G01 X-48.91336 Y-21.72873
G01 X-51.32647 Y-49.14999
G01 X-49.86165 Y-49.14999
G01 X-48.91339 Y-38.37417
G01 X-48.91336 Y-21.72873
G01 X-48.91339 Y-22.60455
G01 X-51.24935 Y-49.14999
G01 X-51.17229 Y-49.14999
G01 X-48.91339 Y-23.48062
G01 X-48.91336 Y-21.72873
G01 X-48.91339 Y-47.13506
G01 X-49.09071 Y-49.14999
G01 X-49.32197 Y-49.14999
G01 X-48.91339 Y-44.50679
G01 X-48.91336 Y-21.72873
G01 X-48.91339 Y-24.35672
G01 X-51.09520 Y-49.14999
G01 X-51.01808 Y-49.14999
G01 X-48.91339 Y-25.23282
G01 X-48.91336 Y-21.72873
G01 X-48.91339 Y-46.25896
G01 X-49.16780 Y-49.14999
G01 X-49.24488 Y-49.14999
G01 X-48.91339 Y-45.38289
G01 X-48.91336 Y-21.72873
G01 X-48.91339 Y-26.10891
G01 X-50.94100 Y-49.14999
G01 X-50.86391 Y-49.14999
G01 X-48.91339 Y-26.98499
G01 X-48.91336 Y-21.72873
G01 X-48.91339 Y-43.63070
G01 X-49.39909 Y-49.14999
G01 X-49.47618 Y-49.14999
G01 X-48.91339 Y-42.75460
G01 X-48.91336 Y-21.72873
G01 X-48.91339 Y-27.86108
G01 X-50.78679 Y-49.14999
G01 X-50.70970 Y-49.14999
G01 X-48.91339 Y-28.73718
G01 X-48.91336 Y-21.72873
G01 X-48.91339 Y-41.87853
G01 X-49.55327 Y-49.14999
G01 X-49.63036 Y-49.14999
G01 X-48.91339 Y-41.00243
G01 X-48.91336 Y-21.72873
G01 X-48.91339 Y-29.61328
G01 X-50.63261 Y-49.14999
G01 X-50.55552 Y-49.14999
G01 X-48.91339 Y-30.48935
G01 X-48.91336 Y-21.72873
G01 X-48.91339 Y-40.12634
G01 X-49.70747 Y-49.14999
G01 X-49.78456 Y-49.14999
G01 X-48.91339 Y-39.25026
G01 X-48.91336 Y-21.72873
G01 X-48.91339 Y-31.36544
G01 X-50.47841 Y-49.14999
G01 X-50.40132 Y-49.14999
G01 X-48.91339 Y-32.24154
G01 X-48.91336 Y-21.72873
G01 X-48.91339 Y-37.49807
G01 X-49.93876 Y-49.14999
G01 X-50.01585 Y-49.14999
G01 X-48.91339 Y-36.62197
G01 X-48.91336 Y-21.72873
G01 X-48.91339 Y-33.11761
G01 X-50.32423 Y-49.14999
G01 X-50.24714 Y-49.14999
G01 X-48.91339 Y-33.99371
G01 X-48.91336 Y-21.72873
G01 X-48.91339 Y-35.74590
G01 X-50.09294 Y-49.14999
G01 X-50.17003 Y-49.14999
G01 X-48.91339 Y-34.86981
G01 X-48.91336 Y-21.72873
G01 X-48.91339 Y-49.14999
G01 X-52.86840 Y-49.14999
G01 X-48.91336 Y-4.20670
G01 X-48.91336 Y-3.33063
G01 X-52.94549 Y-49.14999
G01 X-53.02258 Y-49.14999
G01 X-48.91336 Y-2.45450
G04 P0 ( dwell for no time -- G64 should not smooth over this point )
G00 Z2.00000 ( retract )

G00 X-84.10611 Y-36.46894 ( rapid move to begin. )
G01 F60.00000
( Mill infeed pass 1/1 )
G01 Z-0.10000
G04 P0 ( dwell for no time -- G64 should not smooth over this point )
G01 F120.00000
G01 X-84.10611 Y-36.46894
G01 X-84.12660 Y-36.45225
G01 X-84.36894 Y-36.30491
G01 X-84.62907 Y-36.19190
G01 X-84.90217 Y-36.11540
G01 X-85.18317 Y-36.07676
G01 X-85.46678 Y-36.07676
G01 X-85.74776 Y-36.11540
G01 X-86.02088 Y-36.19190
G01 X-86.28101 Y-36.30491
G01 X-86.52335 Y-36.45225
G01 X-86.54385 Y-36.46894
G01 X-86.28708 Y-36.72571
G01 X-86.18123 Y-36.65088
G01 X-85.85083 Y-36.50562
G01 X-85.50549 Y-36.43264
G01 X-85.15251 Y-36.43224
G01 X-84.79137 Y-36.50770
G01 X-84.46874 Y-36.65088
G01 X-84.36290 Y-36.72573
G01 X-84.10611 Y-36.46894
G01 X-84.22693 Y-36.48116
G01 X-84.37082 Y-36.62505
G01 X-84.36859 Y-36.64737
G01 X-84.37082 Y-36.62505
G01 X-84.42320 Y-36.58801
G01 X-84.76765 Y-36.43467
G01 X-85.13646 Y-36.35626
G01 X-85.51352 Y-36.35626
G01 X-85.86681 Y-36.43051
G01 X-85.89734 Y-36.44041
G01 X-86.22678 Y-36.58801
G01 X-86.27915 Y-36.62502
G01 X-86.28139 Y-36.64735
G01 X-86.27915 Y-36.62502
G01 X-86.42302 Y-36.48116
G01 X-86.47021 Y-36.47549
G01 X-86.42302 Y-36.48116
G01 X-86.24560 Y-36.37326
G01 X-85.99510 Y-36.26444
G01 X-85.73209 Y-36.19076
G01 X-85.46153 Y-36.15357
G01 X-85.18842 Y-36.15339
G01 X-84.91779 Y-36.19058
G01 X-84.65480 Y-36.26427
G01 X-84.40428 Y-36.37310
G01 X-84.22693 Y-36.48116
G01 X-84.35035 Y-36.49596
G01 X-84.37941 Y-36.52502
G01 X-84.37641 Y-36.54120
G01 X-84.37941 Y-36.52502
G01 X-84.40628 Y-36.51057
G01 X-84.72140 Y-36.37026
G01 X-84.76722 Y-36.35538
G01 X-85.12843 Y-36.27989
G01 X-85.49747 Y-36.27862
G01 X-85.54537 Y-36.28367
G01 X-85.90605 Y-36.36162
G01 X-86.24369 Y-36.51057
G01 X-86.27057 Y-36.52500
G01 X-86.27354 Y-36.54120
G01 X-86.27057 Y-36.52500
G01 X-86.29960 Y-36.49596
G01 X-86.34677 Y-36.49030
G01 X-86.29960 Y-36.49596
G01 X-86.21019 Y-36.44161
G01 X-85.96932 Y-36.33699
G01 X-85.71644 Y-36.26612
G01 X-85.45627 Y-36.23036
G01 X-85.19368 Y-36.23018
G01 X-84.93346 Y-36.26594
G01 X-84.68058 Y-36.33681
G01 X-84.43968 Y-36.44146
G01 X-84.35035 Y-36.49596
G04 P0 ( dwell for no time -- G64 should not smooth over this point )
G00 Z2.00000 ( retract )

G00 X-83.24693 Y-38.14999 ( rapid move to begin. )
G01 F60.00000
( Mill infeed pass 1/1 )
G01 Z-0.10000
G04 P0 ( dwell for no time -- G64 should not smooth over this point )
G01 F120.00000
G01 X-83.24693 Y-38.14999
G01 X-83.26628 Y-38.43294
G01 X-83.32399 Y-38.71064
G01 X-83.41896 Y-38.97787
G01 X-83.54946 Y-39.22969
G01 X-83.64614 Y-39.36665
G01 X-83.89935 Y-39.11343
G01 X-83.74756 Y-38.85250
G01 X-83.63801 Y-38.51676
G01 X-83.59818 Y-38.14999
G01 X-83.63801 Y-37.78321
G01 X-83.74756 Y-37.44747
G01 X-83.89937 Y-37.18654
G01 X-83.64614 Y-36.93330
G01 X-83.54946 Y-37.07026
G01 X-83.41896 Y-37.32207
G01 X-83.32399 Y-37.58931
G01 X-83.26628 Y-37.86701
G01 X-83.24693 Y-38.14999
G01 X-83.32373 Y-38.14999
G01 X-83.34235 Y-38.42248
G01 X-83.39793 Y-38.68991
G01 X-83.48934 Y-38.94732
G01 X-83.61523 Y-39.18969
G01 X-83.65630 Y-39.24788
G01 X-83.64924 Y-39.29817
G01 X-83.65630 Y-39.24788
G01 X-83.80316 Y-39.10099
G01 X-83.82305 Y-39.10360
G01 X-83.80316 Y-39.10099
G01 X-83.67746 Y-38.88392
G01 X-83.56496 Y-38.54051
G01 X-83.55828 Y-38.50909
G01 X-83.52224 Y-38.16604
G01 X-83.52224 Y-38.13393
G01 X-83.55828 Y-37.79088
G01 X-83.56496 Y-37.75946
G01 X-83.67746 Y-37.41605
G01 X-83.80319 Y-37.19896
G01 X-83.82307 Y-37.19634
G01 X-83.80319 Y-37.19896
G01 X-83.65630 Y-37.05207
G01 X-83.64924 Y-37.00178
G01 X-83.65630 Y-37.05207
G01 X-83.61523 Y-37.11026
G01 X-83.48934 Y-37.35263
G01 X-83.39793 Y-37.61003
G01 X-83.34235 Y-37.87747
G01 X-83.32373 Y-38.14999
G01 X-83.40070 Y-38.14999
G01 X-83.41863 Y-38.41201
G01 X-83.47207 Y-38.66914
G01 X-83.56001 Y-38.91661
G01 X-83.66902 Y-39.12654
G01 X-83.66087 Y-39.17917
G01 X-83.66902 Y-39.12654
G01 X-83.70700 Y-39.08857
G01 X-83.72676 Y-39.09118
G01 X-83.70700 Y-39.08857
G01 X-83.60738 Y-38.91531
G01 X-83.49193 Y-38.56424
G01 X-83.48190 Y-38.51712
G01 X-83.44459 Y-38.14999
G01 X-83.48190 Y-37.78286
G01 X-83.49193 Y-37.73574
G01 X-83.60738 Y-37.38466
G01 X-83.70700 Y-37.21138
G01 X-83.72676 Y-37.20876
G01 X-83.70700 Y-37.21138
G01 X-83.66902 Y-37.17341
G01 X-83.66087 Y-37.12078
G01 X-83.66902 Y-37.17341
G01 X-83.56001 Y-37.38334
G01 X-83.47207 Y-37.63081
G01 X-83.41863 Y-37.88794
G01 X-83.40070 Y-38.14999
G04 P0 ( dwell for no time -- G64 should not smooth over this point )
G00 Z2.00000 ( retract )

G00 X-84.10611 Y-39.83101 ( rapid move to begin. )
G01 F60.00000
( Mill infeed pass 1/1 )
G01 Z-0.10000
G04 P0 ( dwell for no time -- G64 should not smooth over this point )
G01 F120.00000
G01 X-84.10611 Y-39.83101
G01 X-84.12660 Y-39.84770
G01 X-84.36894 Y-39.99504
G01 X-84.62907 Y-40.10805
G01 X-84.90217 Y-40.18455
G01 X-85.18317 Y-40.22319
G01 X-85.46678 Y-40.22319
G01 X-85.74776 Y-40.18455
G01 X-86.02088 Y-40.10805
G01 X-86.28101 Y-39.99504
G01 X-86.52335 Y-39.84770
G01 X-86.54385 Y-39.83101
G01 X-86.28708 Y-39.57424
G01 X-86.18123 Y-39.64910
G01 X-85.85860 Y-39.79227
G01 X-85.49747 Y-39.86774
G01 X-85.14448 Y-39.86733
G01 X-84.79914 Y-39.79436
G01 X-84.46874 Y-39.64910
G01 X-84.36287 Y-39.57424
G01 X-84.10611 Y-39.83101
G01 X-84.22693 Y-39.81882
G01 X-84.37080 Y-39.67493
G01 X-84.36856 Y-39.65260
G01 X-84.37080 Y-39.67493
G01 X-84.42320 Y-39.71196
G01 X-84.76765 Y-39.86530
G01 X-85.13646 Y-39.94371
G01 X-85.51352 Y-39.94371
G01 X-85.86681 Y-39.86947
G01 X-85.89734 Y-39.85956
G01 X-86.22678 Y-39.71196
G01 X-86.27915 Y-39.67493
G01 X-86.28139 Y-39.65260
G01 X-86.27915 Y-39.67493
G01 X-86.42302 Y-39.81879
G01 X-86.47021 Y-39.82446
G01 X-86.42302 Y-39.81879
G01 X-86.24560 Y-39.92669
G01 X-85.99510 Y-40.03551
G01 X-85.73209 Y-40.10919
G01 X-85.46153 Y-40.14638
G01 X-85.18842 Y-40.14655
G01 X-84.91779 Y-40.10937
G01 X-84.65480 Y-40.03568
G01 X-84.40428 Y-39.92684
G01 X-84.22693 Y-39.81882
G01 X-84.35035 Y-39.80398
G01 X-84.37938 Y-39.77495
G01 X-84.37641 Y-39.75875
G01 X-84.37938 Y-39.77495
G01 X-84.40628 Y-39.78940
G01 X-84.72140 Y-39.92971
G01 X-84.76722 Y-39.94460
G01 X-85.12843 Y-40.02009
G01 X-85.49747 Y-40.02136
G01 X-85.54537 Y-40.01630
G01 X-85.90605 Y-39.93835
G01 X-86.24369 Y-39.78940
G01 X-86.27057 Y-39.77495
G01 X-86.27356 Y-39.75877
G01 X-86.27057 Y-39.77495
G01 X-86.29960 Y-39.80398
G01 X-86.34677 Y-39.80965
G01 X-86.29960 Y-39.80398
G01 X-86.21019 Y-39.85834
G01 X-85.96932 Y-39.96296
G01 X-85.71644 Y-40.03383
G01 X-85.45627 Y-40.06959
G01 X-85.19368 Y-40.06977
G01 X-84.93346 Y-40.03401
G01 X-84.68058 Y-39.96314
G01 X-84.43968 Y-39.85849
G01 X-84.35035 Y-39.80398
G04 P0 ( dwell for no time -- G64 should not smooth over this point )
G00 Z2.00000 ( retract )

G00 X-86.75060 Y-39.11346 ( rapid move to begin. )
G01 F60.00000
( Mill infeed pass 1/1 )
G01 Z-0.10000
G04 P0 ( dwell for no time -- G64 should not smooth over this point )
G01 F120.00000
G01 X-86.75060 Y-39.11346
G01 X-86.90242 Y-38.85250
G01 X-87.01197 Y-38.51676
G01 X-87.05179 Y-38.14999
G01 X-87.01197 Y-37.78321
G01 X-86.90242 Y-37.44747
G01 X-86.75060 Y-37.18651
G01 X-87.00381 Y-36.93330
G01 X-87.10049 Y-37.07026
G01 X-87.23099 Y-37.32207
G01 X-87.32596 Y-37.58931
G01 X-87.38367 Y-37.86701
G01 X-87.40303 Y-38.14999
G01 X-87.38367 Y-38.43294
G01 X-87.32596 Y-38.71064
G01 X-87.23099 Y-38.97787
G01 X-87.10049 Y-39.22969
G01 X-87.00381 Y-39.36665
G01 X-86.75060 Y-39.11346
G01 X-86.84679 Y-39.10101
G01 X-86.96498 Y-38.89855
G01 X-86.97841 Y-38.86858
G01 X-87.08502 Y-38.54051
G01 X-87.09170 Y-38.50909
G01 X-87.12858 Y-38.14999
G01 X-87.08918 Y-37.77501
G01 X-86.97250 Y-37.41605
G01 X-86.84677 Y-37.19893
G01 X-86.82690 Y-37.19634
G01 X-86.84677 Y-37.19893
G01 X-86.99365 Y-37.05207
G01 X-87.00071 Y-37.00178
G01 X-86.99365 Y-37.05207
G01 X-87.03473 Y-37.11026
G01 X-87.16061 Y-37.35263
G01 X-87.25184 Y-37.61008
G01 X-87.30742 Y-37.87750
G01 X-87.32604 Y-38.14999
G01 X-87.30742 Y-38.42245
G01 X-87.25184 Y-38.68986
G01 X-87.16061 Y-38.94732
G01 X-87.03473 Y-39.18969
G01 X-86.99365 Y-39.24788
G01 X-87.00071 Y-39.29817
G01 X-86.99365 Y-39.24788
G01 X-86.84679 Y-39.10101
G01 X-86.94298 Y-39.08859
G01 X-87.03132 Y-38.93726
G01 X-87.05146 Y-38.89230
G01 X-87.16429 Y-38.54094
G01 X-87.20539 Y-38.14999
G01 X-87.16808 Y-37.78286
G01 X-87.15804 Y-37.73574
G01 X-87.04260 Y-37.38466
G01 X-86.94296 Y-37.21138
G01 X-86.92319 Y-37.20874
G01 X-86.94296 Y-37.21138
G01 X-86.98093 Y-37.17341
G01 X-86.98908 Y-37.12078
G01 X-86.98093 Y-37.17341
G01 X-87.08977 Y-37.38342
G01 X-87.17773 Y-37.63086
G01 X-87.23114 Y-37.88796
G01 X-87.24908 Y-38.14999
G01 X-87.23114 Y-38.41199
G01 X-87.17773 Y-38.66909
G01 X-87.08977 Y-38.91653
G01 X-86.98093 Y-39.12654
G01 X-86.98908 Y-39.17917
G01 X-86.98093 Y-39.12654
G01 X-86.94298 Y-39.08859

G04 P0 ( dwell for no time -- G64 should not smooth over this point )
G00 Z15.000000 ( retract )

M5 ( Spindle off. )
G04 P1.000000
M9 ( Coolant off. )
M2 ( Program end. )

