( pcb2gcode 2.5.0 )
( Software-independent Gcode )

G94 ( Millimeters per minute feed rate. )
G21 ( Units == Millimeters. )

G90 ( Absolute coordinates. )
G00 S13000 ( RPM spindle speed. )
G01 F120.00000 ( Feedrate. )


G00 Z15.00000 (Retract to tool change height)
T0
M5      (Spindle stop.)
G04 P1.00000 (Wait for spindle to stop)
(MSG, Change tool bit to cutter diameter 1.00000mm)
M6      (Tool change.)
M0      (Temporary machine stop.)
M3 ( Spindle on clockwise. )
G04 P1.00000 (Wait for spindle to get up to speed)
G04 P0 ( dwell for no time -- G64 should not smooth over this point )
G00 Z2.00000 ( retract )

G00 X-0.56571 Y-41.70355 ( rapid move to begin. )
G01 Z-0.50000 F60.00000 ( plunge. )
G04 P0 ( dwell for no time -- G64 should not smooth over this point )
G01 F120.00000
G01 X-0.56650 Y-41.65242
G01 X-0.57249 Y-41.60162
G01 X-0.82377 Y-40.14198
G01 X-1.36159 Y-38.76195
G01 X-1.38486 Y-38.71110
G01 X-1.41369 Y-38.66317
G01 X-22.78952 Y-7.22968
G01 X-23.96010 Y-5.39107
G01 X-24.01585 Y-5.31896
G01 X-25.50587 Y-3.71785
G01 X-25.57376 Y-3.65707
G01 X-27.32964 Y-2.35295
G01 X-27.40746 Y-2.30551
G01 X-29.37086 Y-1.34178
G01 X-29.45597 Y-1.30927
G01 X-31.56171 Y-0.71793
G01 X-31.65135 Y-0.70137
G01 X-33.87499 Y-0.49997
G01 X-63.92052 Y-0.50206
G01 X-66.09860 Y-0.70137
G01 X-66.18823 Y-0.71793
G01 X-68.29397 Y-1.30927
G01 X-68.37909 Y-1.34178
G01 X-70.34248 Y-2.30551
G01 X-70.42031 Y-2.35295
G01 X-72.17618 Y-3.65707
G01 X-72.24408 Y-3.71785
G01 X-73.73409 Y-5.31896
G01 X-73.78984 Y-5.39107
G01 X-74.96028 Y-7.22945
G01 X-96.38596 Y-38.66271
G01 X-96.41497 Y-38.71087
G01 X-96.43836 Y-38.76195
G01 X-96.97618 Y-40.14198
G01 X-97.22744 Y-41.60162
G01 X-97.23344 Y-41.65242
G01 X-97.23422 Y-41.70352
G01 X-97.17842 Y-43.18361
G01 X-96.82805 Y-44.62269
G01 X-96.81332 Y-44.67167
G01 X-96.79368 Y-44.71888
G01 X-96.15348 Y-46.05449
G01 X-95.25935 Y-47.23526
G01 X-95.22635 Y-47.27433
G01 X-95.18955 Y-47.30984
G01 X-94.07070 Y-48.28035
G01 X-92.78051 Y-49.00775
G01 X-92.73469 Y-49.03048
G01 X-91.32362 Y-49.48052
G01 X-91.27414 Y-49.49347
G01 X-91.22359 Y-49.50130
G01 X-89.74999 Y-49.64999
G01 X-8.05000 Y-49.64999
G01 X-7.99892 Y-49.64737
G01 X-6.52579 Y-49.49347
G01 X-6.47631 Y-49.48052
G01 X-5.06527 Y-49.03048
G01 X-5.01945 Y-49.00775
G01 X-3.72925 Y-48.28035
G01 X-2.61038 Y-47.30984
G01 X-2.57358 Y-47.27433
G01 X-2.54058 Y-47.23526
G01 X-1.64645 Y-46.05447
G01 X-1.62209 Y-46.00951
G01 X-0.98661 Y-44.67167
G01 X-0.63116 Y-43.23385
G01 X-0.62154 Y-43.18363
G01 X-0.56571 Y-41.70355
G01 Z-1.00000 F60.00000 ( plunge. )
G04 P0 ( dwell for no time -- G64 should not smooth over this point )
G01 F120.00000
G01 X-0.56650 Y-41.65242
G01 X-0.57249 Y-41.60162
G01 X-0.82377 Y-40.14198
G01 X-1.36159 Y-38.76195
G01 X-1.38486 Y-38.71110
G01 X-1.41369 Y-38.66317
G01 X-22.78952 Y-7.22968
G01 X-23.96010 Y-5.39107
G01 X-24.01585 Y-5.31896
G01 X-25.50587 Y-3.71785
G01 X-25.57376 Y-3.65707
G01 X-27.32964 Y-2.35295
G01 X-27.40746 Y-2.30551
G01 X-29.37086 Y-1.34178
G01 X-29.45597 Y-1.30927
G01 X-31.56171 Y-0.71793
G01 X-31.65135 Y-0.70137
G01 X-33.87499 Y-0.49997
G01 X-63.92052 Y-0.50206
G01 X-66.09860 Y-0.70137
G01 X-66.18823 Y-0.71793
G01 X-68.29397 Y-1.30927
G01 X-68.37909 Y-1.34178
G01 X-70.34248 Y-2.30551
G01 X-70.42031 Y-2.35295
G01 X-72.17618 Y-3.65707
G01 X-72.24408 Y-3.71785
G01 X-73.73409 Y-5.31896
G01 X-73.78984 Y-5.39107
G01 X-74.96028 Y-7.22945
G01 X-96.38596 Y-38.66271
G01 X-96.41497 Y-38.71087
G01 X-96.43836 Y-38.76195
G01 X-96.97618 Y-40.14198
G01 X-97.22744 Y-41.60162
G01 X-97.23344 Y-41.65242
G01 X-97.23422 Y-41.70352
G01 X-97.17842 Y-43.18361
G01 X-96.82805 Y-44.62269
G01 X-96.81332 Y-44.67167
G01 X-96.79368 Y-44.71888
G01 X-96.15348 Y-46.05449
G01 X-95.25935 Y-47.23526
G01 X-95.22635 Y-47.27433
G01 X-95.18955 Y-47.30984
G01 X-94.07070 Y-48.28035
G01 X-92.78051 Y-49.00775
G01 X-92.73469 Y-49.03048
G01 X-91.32362 Y-49.48052
G01 X-91.27414 Y-49.49347
G01 X-91.22359 Y-49.50130
G01 X-89.74999 Y-49.64999
G01 X-8.05000 Y-49.64999
G01 X-7.99892 Y-49.64737
G01 X-6.52579 Y-49.49347
G01 X-6.47631 Y-49.48052
G01 X-5.06527 Y-49.03048
G01 X-5.01945 Y-49.00775
G01 X-3.72925 Y-48.28035
G01 X-2.61038 Y-47.30984
G01 X-2.57358 Y-47.27433
G01 X-2.54058 Y-47.23526
G01 X-1.64645 Y-46.05447
G01 X-1.62209 Y-46.00951
G01 X-0.98661 Y-44.67167
G01 X-0.63116 Y-43.23385
G01 X-0.62154 Y-43.18363
G01 X-0.56571 Y-41.70355
G01 Z-1.50000 F60.00000 ( plunge. )
G04 P0 ( dwell for no time -- G64 should not smooth over this point )
G01 F120.00000
G01 X-0.56650 Y-41.65242
G01 X-0.57249 Y-41.60162
G01 X-0.82377 Y-40.14198
G01 X-1.36159 Y-38.76195
G01 X-1.38486 Y-38.71110
G01 X-1.41369 Y-38.66317
G01 X-22.78952 Y-7.22968
G01 X-23.96010 Y-5.39107
G01 X-24.01585 Y-5.31896
G01 X-25.50587 Y-3.71785
G01 X-25.57376 Y-3.65707
G01 X-27.32964 Y-2.35295
G01 X-27.40746 Y-2.30551
G01 X-29.37086 Y-1.34178
G01 X-29.45597 Y-1.30927
G01 X-31.56171 Y-0.71793
G01 X-31.65135 Y-0.70137
G01 X-33.87499 Y-0.49997
G01 X-63.92052 Y-0.50206
G01 X-66.09860 Y-0.70137
G01 X-66.18823 Y-0.71793
G01 X-68.29397 Y-1.30927
G01 X-68.37909 Y-1.34178
G01 X-70.34248 Y-2.30551
G01 X-70.42031 Y-2.35295
G01 X-72.17618 Y-3.65707
G01 X-72.24408 Y-3.71785
G01 X-73.73409 Y-5.31896
G01 X-73.78984 Y-5.39107
G01 X-74.96028 Y-7.22945
G01 X-96.38596 Y-38.66271
G01 X-96.41497 Y-38.71087
G01 X-96.43836 Y-38.76195
G01 X-96.97618 Y-40.14198
G01 X-97.22744 Y-41.60162
G01 X-97.23344 Y-41.65242
G01 X-97.23422 Y-41.70352
G01 X-97.17842 Y-43.18361
G01 X-96.82805 Y-44.62269
G01 X-96.81332 Y-44.67167
G01 X-96.79368 Y-44.71888
G01 X-96.15348 Y-46.05449
G01 X-95.25935 Y-47.23526
G01 X-95.22635 Y-47.27433
G01 X-95.18955 Y-47.30984
G01 X-94.07070 Y-48.28035
G01 X-92.78051 Y-49.00775
G01 X-92.73469 Y-49.03048
G01 X-91.32362 Y-49.48052
G01 X-91.27414 Y-49.49347
G01 X-91.22359 Y-49.50130
G01 X-89.74999 Y-49.64999
G01 X-8.05000 Y-49.64999
G01 X-7.99892 Y-49.64737
G01 X-6.52579 Y-49.49347
G01 X-6.47631 Y-49.48052
G01 X-5.06527 Y-49.03048
G01 X-5.01945 Y-49.00775
G01 X-3.72925 Y-48.28035
G01 X-2.61038 Y-47.30984
G01 X-2.57358 Y-47.27433
G01 X-2.54058 Y-47.23526
G01 X-1.64645 Y-46.05447
G01 X-1.62209 Y-46.00951
G01 X-0.98661 Y-44.67167
G01 X-0.63116 Y-43.23385
G01 X-0.62154 Y-43.18363
G01 X-0.56571 Y-41.70355
G01 Z-2.00000 F60.00000 ( plunge. )
G04 P0 ( dwell for no time -- G64 should not smooth over this point )
G01 F120.00000
G01 X-0.56650 Y-41.65242
G01 X-0.57249 Y-41.60162
G01 X-0.82377 Y-40.14198
G01 X-1.36159 Y-38.76195
G01 X-1.38486 Y-38.71110
G01 X-1.41369 Y-38.66317
G01 X-22.78952 Y-7.22968
G01 X-23.96010 Y-5.39107
G01 X-24.01585 Y-5.31896
G01 X-25.50587 Y-3.71785
G01 X-25.57376 Y-3.65707
G01 X-27.32964 Y-2.35295
G01 X-27.40746 Y-2.30551
G01 X-29.37086 Y-1.34178
G01 X-29.45597 Y-1.30927
G01 X-31.56171 Y-0.71793
G01 X-31.65135 Y-0.70137
G01 X-33.87499 Y-0.49997
G01 X-63.92052 Y-0.50206
G01 X-66.09860 Y-0.70137
G01 X-66.18823 Y-0.71793
G01 X-68.29397 Y-1.30927
G01 X-68.37909 Y-1.34178
G01 X-70.34248 Y-2.30551
G01 X-70.42031 Y-2.35295
G01 X-72.17618 Y-3.65707
G01 X-72.24408 Y-3.71785
G01 X-73.73409 Y-5.31896
G01 X-73.78984 Y-5.39107
G01 X-74.96028 Y-7.22945
G01 X-96.38596 Y-38.66271
G01 X-96.41497 Y-38.71087
G01 X-96.43836 Y-38.76195
G01 X-96.97618 Y-40.14198
G01 X-97.22744 Y-41.60162
G01 X-97.23344 Y-41.65242
G01 X-97.23422 Y-41.70352
G01 X-97.17842 Y-43.18361
G01 X-96.82805 Y-44.62269
G01 X-96.81332 Y-44.67167
G01 X-96.79368 Y-44.71888
G01 X-96.15348 Y-46.05449
G01 X-95.25935 Y-47.23526
G01 X-95.22635 Y-47.27433
G01 X-95.18955 Y-47.30984
G01 X-94.07070 Y-48.28035
G01 X-92.78051 Y-49.00775
G01 X-92.73469 Y-49.03048
G01 X-91.32362 Y-49.48052
G01 X-91.27414 Y-49.49347
G01 X-91.22359 Y-49.50130
G01 X-89.74999 Y-49.64999
G01 X-8.05000 Y-49.64999
G01 X-7.99892 Y-49.64737
G01 X-6.52579 Y-49.49347
G01 X-6.47631 Y-49.48052
G01 X-5.06527 Y-49.03048
G01 X-5.01945 Y-49.00775
G01 X-3.72925 Y-48.28035
G01 X-2.61038 Y-47.30984
G01 X-2.57358 Y-47.27433
G01 X-2.54058 Y-47.23526
G01 X-1.64645 Y-46.05447
G01 X-1.62209 Y-46.00951
G01 X-0.98661 Y-44.67167
G01 X-0.63116 Y-43.23385
G01 X-0.62154 Y-43.18363
G01 X-0.56571 Y-41.70355
G01 Z-2.50000 F60.00000 ( plunge. )
G04 P0 ( dwell for no time -- G64 should not smooth over this point )
G01 F120.00000
G01 X-0.56650 Y-41.65242
G01 X-0.57249 Y-41.60162
G01 X-0.82377 Y-40.14198
G01 X-1.36159 Y-38.76195
G01 X-1.38486 Y-38.71110
G01 X-1.41369 Y-38.66317
G01 X-22.78952 Y-7.22968
G01 X-23.96010 Y-5.39107
G01 X-24.01585 Y-5.31896
G01 X-25.50587 Y-3.71785
G01 X-25.57376 Y-3.65707
G01 X-27.32964 Y-2.35295
G01 X-27.40746 Y-2.30551
G01 X-29.37086 Y-1.34178
G01 X-29.45597 Y-1.30927
G01 X-31.56171 Y-0.71793
G01 X-31.65135 Y-0.70137
G01 X-33.87499 Y-0.49997
G01 X-63.92052 Y-0.50206
G01 X-66.09860 Y-0.70137
G01 X-66.18823 Y-0.71793
G01 X-68.29397 Y-1.30927
G01 X-68.37909 Y-1.34178
G01 X-70.34248 Y-2.30551
G01 X-70.42031 Y-2.35295
G01 X-72.17618 Y-3.65707
G01 X-72.24408 Y-3.71785
G01 X-73.73409 Y-5.31896
G01 X-73.78984 Y-5.39107
G01 X-74.96028 Y-7.22945
G01 X-96.38596 Y-38.66271
G01 X-96.41497 Y-38.71087
G01 X-96.43836 Y-38.76195
G01 X-96.97618 Y-40.14198
G01 X-97.22744 Y-41.60162
G01 X-97.23344 Y-41.65242
G01 X-97.23422 Y-41.70352
G01 X-97.17842 Y-43.18361
G01 X-96.82805 Y-44.62269
G01 X-96.81332 Y-44.67167
G01 X-96.79368 Y-44.71888
G01 X-96.15348 Y-46.05449
G01 X-95.25935 Y-47.23526
G01 X-95.22635 Y-47.27433
G01 X-95.18955 Y-47.30984
G01 X-94.07070 Y-48.28035
G01 X-92.78051 Y-49.00775
G01 X-92.73469 Y-49.03048
G01 X-91.32362 Y-49.48052
G01 X-91.27414 Y-49.49347
G01 X-91.22359 Y-49.50130
G01 X-89.74999 Y-49.64999
G01 X-8.05000 Y-49.64999
G01 X-7.99892 Y-49.64737
G01 X-6.52579 Y-49.49347
G01 X-6.47631 Y-49.48052
G01 X-5.06527 Y-49.03048
G01 X-5.01945 Y-49.00775
G01 X-3.72925 Y-48.28035
G01 X-2.61038 Y-47.30984
G01 X-2.57358 Y-47.27433
G01 X-2.54058 Y-47.23526
G01 X-1.64645 Y-46.05447
G01 X-1.62209 Y-46.00951
G01 X-0.98661 Y-44.67167
G01 X-0.63116 Y-43.23385
G01 X-0.62154 Y-43.18363
G01 X-0.56571 Y-41.70355

G04 P0 ( dwell for no time -- G64 should not smooth over this point )
G00 Z15.000000 ( retract )

M5 ( Spindle off. )
G04 P1.000000
M9 ( Coolant off. )
M2 ( Program end. )

